X:1
T:[ID 2v-9 (=2-135)]
T:[ID 2v-9 (=2-135)]
T:Bezeichnung standardisiert: Sonata Allegro Sonata Allegro
T:Urheber unbekannt Datum in der hier transkribierten schriftlichen Quelle: 1767
C:Urheber unbekannt
C:Datum in der hier transkribierten schriftlichen Quelle: 1767
L:1/8
M:2/4
K:D
V:1 treble 
V:1
 A/B/c/ | d2 Te2 | fbag | f2 ed/e/ | d3/2 z A/B/c/ | d2 e2 | fbag | fd' c'/b/a/^g/ | aeee | %9
 fe z a/e/ | d c2 B | ceee | fe z a/e/ | d c2 B | c2 z c/d/ | ee ed/c/ | d2 z B/c/ | dd e/d/c/B/ | %18
 ce c2 | z a e2 | z c' a2 | z e'c'a | e2 b2 | ce c2 | z a e2 | z c' a2 | z e'c'a | e2 b2 | %28
 a2 e/c/e/c/ | Aef^g | a2- a/ :: e/f/^g/"^[Fortsetzug des Notates z. Zt. nicht gefunden]" | %32

